X:3713
T: Daj mi daj
C: Dalmatia
R: waltz
Z: John Chambers <jc@eddie.mit.edu> http://eddie.mit.edu/~jc/music/abc/Balkan
M: 3/4
L: 1/4
K: C
[| "C"[C2E] [DF] | [E3G] | [C2E] [DF] | [E2G] [EG] | "F"[F2A] [EG] | "Dm"[D2F] [CE] | "G7"[B,3D]- | [B,3D] |
